X:401
T:Reel 401
M:4/4
K:Cmaj
L:1/8
dc|BGAB cBcA|GECE GFDC|AGFG ABce||dcBd cBAB:||2dBce d2c2|Gc (3cBc dcBc|dcec dcec|GccB cdeg|fdBc dcBc|Gc (3cBc dcBc|dcBc def2|gefd ecdB|cGAF ECC2|
